X:1
T:G Major                      Jeremiah Ingalls, 1805
T:Isaac Watts, 1719 (Psalm 34, Part 2)                     86. 86. (C. M.)
T:Rich Provision
T:Treble-Tenor-Bass transcribed from Ingalls' Christian Harmony , 1805 ; Counter by B. C. Johnston, 2017..
%%score [ 1 2 3 4 ]
L:1/8
Q:1/4=80
M:6/8
K:G
V:1 treble nm="Treble" snm="Tr."
V:2 treble nm="Counter" snm="Tr.\nII"
V:3 treble-8 nm="Tenor" snm="T."
V:4 bass nm="Bass" snm="B."
V:1
"^1. Je – sus, thy blessings   are   not   few,  Nor    is   thy   gos – pel    weak;  Thy grace can melt the stubborn Jew,  And bow th'aspiring Greek.  Wide as the reach of" A | %1
 B2 B d2 B | AGA B2 B | B2 d e2 d | d3- d2 d | B2 B B2 G | d2 d d2 d | B2 d cBA | B3- B2 G | %9
 B2 d B2 G | %10
"^1.  Sa – tan's  rage  Doth thy sal – va – tion   flow; ___________    'Tis   not   con–fined   to     sex       or   age,      The    lof  –  ty    or     the     low." A2 c A2 F | %11
 d2 g d2 B | (ded !fermata!d2) d | B2 B B2 G | B2 B B2 c | d2 e d2 c | B6 |] %17
V:2
"^2. While  grace  is  offered  to  the  prince,  The poor may take their share;  No  mortal  has  a  just  pretense  To     pe – rish  in     des  –  pair.    Be wise, ye men of" A | %1
 G2 G A2 B | FGA B2 d | B2 B c2 B | (B3 A2) B | d2 B G2 E | A2 d B2 B | G2 B ABA | G3- G2 B | %9
 d2 B d2 B | %10
"^2. strength and wit,  Nor boast your native powers; ________   But     to    his  sove–reign   grace  sub–mit,   And   glo  –  ry  shall    be   yours." c2 c A2 A | %11
 B2 d d2 B | (dcB !fermata!A2) F | G2 B G2 c | dcB B2 c | d2 c BAF | G6 |] %17
V:3
"^3. Come,  all  ye  vi–lest  sin – ners, come,  He'll  form  your  souls  anew;  His gospel and his heart have room  For  re–bels  such  as      you.     His  doctrine  is  al –" D | %1
 G2 G A2 G | FEF D2 D | G2 A/B/ c2 B/A/ | (B3 A2) B | d2 B G2 G | A2 F D2 D | B2 B AGF | G3- G2 B | %9
 d2 g d2 B | %10
"^3. –migh–ty love;  There's  virtue  in   his    name; ____________   To    turn   the  ra  –  ven     to         a    dove,     The   li   –   on   to      a        lamb." c2 e c2 A | %11
 B2 d B2 G | (BcB !fermata!A2) D | G2 A B2 c | def g2 c | B2 G A2 F | G6 |] %17
V:4
 D, | G,2 G, D,2 E, | D,2 D, B,,2 B,, | G,,2 D, C,2 G,, | D,3- D,2 D, | G,2 G, E,2 E, | %6
 D,2 D, B,,2 B,, | G,,2 G,, C,2 D, | G,,3- G,,2 D, | G,2 G, G,2 G, | %10
"^____________________________________________________________________\nEdited by B. C. Johnston, 2017\n   1. Measure 8, \nTenor\n: first note changed from A to B.\n   2. Counter part written." C,2 C, C,2 D, | %11
 G,2 G, G,2 G, | D,3- !fermata!D,2 D, | G,2 G, G,2 G, | G,2 G, G,2 C, | B,,2 C, D,2 D, | G,,6 |] %17

